X: 871
M: 6/8
L: 1/8
K: Gm
V: 1
fdB Bfd | cAF FGA | BAG A^FD | B3 A2 :|
|: d |\
gag T^f2d | gab Ta2g | B>cd/e/ fdB | f3 gab |\
fdB Bfd | cAF Fdc | BAG A^FD | B3 A2 |]
V: 2 clef=bass middle=d
z |\
g3 d3 | g3 a3 | b3 c'3 | d'3 e'3 |\
d'3 b3 | f3 f3 | g3 d3 | G3 d2 :|
|: z |\
g3 d3 | B3 c3 | d3 d3 | d3 e3 |\
d3 B3 | f3 F3 | g3 d3 | G3 d2 |]

